X:234
T:La Demoiselle. RH.234
R:jig
S:Rev.R.Harrison’s MS,c1815,Cumbria
O:England
A:Temple Sowerby,Cumbria
Z:vmp.Simon Wilson. Review PJH, 2008.
M:6/8
L:1/8
Q:3/8=120
K:G
B/c/|d2d dBd|e2c c2e|dec BcA|G2G GBc|\
d2d dBd|e2c c2e|dec BcA|G3 G2:|!
|:d|g2g gfg|a2d d2f/g/|a2a aga|b2g g2b|\
abg fge|d2d dBc|d2d dBd|e2c c2e|!
dec BcA|G2G G2B/c/|d2d dBd|\
e2c c2e|dec BcA|G3 G2:|

